X: 42
T: Haunted House
C: Vincent Broderick
M: 6/8
L: 1/8
R: Jig
K: G
D|GFG AGA|BGE EDE|GBd egd|ege edB|
GFG AGA|BGE EDE|GBd ege|dBA G2 :|
D|GBd egd|ege edB|GBd ded|ded dBA|
|1 GBd egd|ege edB|GBd ege|dBA G2 :|
|2 GFG AGA|BGE EDE|GBd ege|dBA G2D||
